src/main/resources/static/img/dropmenu/personplus.svg

<svg xmlns="http://www.w3.org/2000/svg" xmlns:xlink="http://www.w3.org/1999/xlink" viewBox="0,0,256,256" width="72px" height="72px" fill-rule="nonzero"><g transform=""><g fill-opacity="0" fill="#ffffff" fill-rule="nonzero" stroke="none" stroke-width="1" stroke-linecap="butt" stroke-linejoin="miter" stroke-miterlimit="10" stroke-dasharray="" stroke-dashoffset="0" font-family="none" font-weight="none" font-size="none" text-anchor="none" style="mix-blend-mode: normal"><path transform="" d="M0,256v-256h256v256z" id="bgRectangle"></path></g><g fill="#000000" fill-rule="nonzero" stroke="none" stroke-width="1" stroke-linecap="butt" stroke-linejoin="miter" stroke-miterlimit="10" stroke-dasharray="" stroke-dashoffset="0" font-family="none" font-weight="none" font-size="none" text-anchor="none" style="mix-blend-mode: normal"><g transform="scale(10.66667,10.66667)"><path d="M17,19v-2.5c0,-0.27614 0.22386,-0.5 0.5,-0.5c0.27614,0 0.5,0.22386 0.5,0.5v2.5h2.5c0.27614,0 0.5,0.22386 0.5,0.5c0,0.27614 -0.22386,0.5 -0.5,0.5h-2.5v2.5c0,0.27614 -0.22386,0.5 -0.5,0.5c-0.27614,0 -0.5,-0.22386 -0.5,-0.5v-2.5h-2.5c-0.27614,0 -0.5,-0.22386 -0.5,-0.5c0,-0.27614 0.22386,-0.5 0.5,-0.5zM14.04251,13.56514c-0.62362,0.27944 -1.31492,0.43486 -2.04251,0.43486c-0.72613,0 -1.41611,-0.15479 -2.03873,-0.43316l-4.08197,1.85544c-0.53549,0.24341 -0.8793,0.77733 -0.8793,1.36555v0.71217c0,0.82843 0.67157,1.5 1.5,1.5h5c0.27614,0 0.5,0.22386 0.5,0.5c0,0.27614 -0.22386,0.5 -0.5,0.5h-5c-1.38071,0 -2.5,-1.11929 -2.5,-2.5v-0.71217c0,-0.98036 0.57301,-1.87024 1.46549,-2.27592l3.45667,-1.57121c-1.17007,-0.91516 -1.92216,-2.3401 -1.92216,-3.9407c0,-2.76142 2.23858,-5 5,-5c2.76142,0 5,2.23858 5,5c0,1.59292 -0.74489,3.01187 -1.90535,3.9275l2.60196,1.11278c0.2539,0.10858 0.3717,0.40243 0.26311,0.65633c-0.10858,0.2539 -0.40243,0.3717 -0.65633,0.26311l-3.26088,-1.39458zM12,13c2.20914,0 4,-1.79086 4,-4c0,-2.20914 -1.79086,-4 -4,-4c-2.20914,0 -4,1.79086 -4,4c0,2.20914 1.79086,4 4,4z"></path></g></g></g></svg>

<svg xmlns="http://www.w3.org/2000/svg" width="72" height="72" viewBox="0 0 256 256"><g stroke-miterlimit="10" font-family="none" font-size="none" font-weight="none" text-anchor="none"><path fill="none" fill-opacity="0" d="M-9.634 265.634V-9.634h275.268v275.268z" style="mix-blend-mode:normal" transform="matrix(.93 0 0 .93 8.96 8.96)"/><path d="M17 19v-2.5a.5.5 0 0 1 1 0V19h2.5a.5.5 0 0 1 0 1H18v2.5a.5.5 0 0 1-1 0V20h-2.5a.5.5 0 0 1 0-1zm-2.957-5.435A4.982 4.982 0 0 1 12 14a4.982 4.982 0 0 1-2.039-.433L5.88 15.422A1.5 1.5 0 0 0 5 16.788v.712A1.5 1.5 0 0 0 6.5 19h5a.5.5 0 0 1 0 1h-5A2.5 2.5 0 0 1 4 17.5v-.712a2.5 2.5 0 0 1 1.465-2.276l3.457-1.571a5 5 0 1 1 6.172-.013l2.603 1.112a.5.5 0 1 1-.394.92l-3.26-1.395zM12 13a4 4 0 1 0 0-8 4 4 0 0 0 0 8z" style="mix-blend-mode:normal" transform="matrix(9.92 0 0 9.92 8.96 8.96)"/></g></svg>
